dist/icons/lyne-warning-light-medium.svg

<svg width="36" height="36" viewBox="0 0 36 36" fill="none" xmlns="http://www.w3.org/2000/svg">
<path fill-rule="evenodd" clip-rule="evenodd" d="M19.25 7.49955V2.99955H18.25V7.49955H19.25ZM13.8535 8.646L10.8535 5.646L10.1464 6.35311L13.1464 9.35311L13.8535 8.646ZM27.3535 6.35311L24.3535 9.35311L23.6464 8.646L26.6464 5.646L27.3535 6.35311ZM13.25 17.2496C13.25 14.2122 15.7126 11.7496 18.75 11.7496C21.7873 11.7496 24.25 14.2122 24.25 17.2496V25.7496H13.25V17.2496ZM12.25 25.7496V17.2496C12.25 13.6599 15.1603 10.7496 18.75 10.7496C22.3396 10.7496 25.25 13.6599 25.25 17.2496V25.7496H27.75H28.1104L28.2243 26.0914L29.7243 30.5914L29.9437 31.2496H29.25H8.24999H7.55627L7.77565 30.5914L9.27565 26.0914L9.38961 25.7496H9.74999H12.25ZM16.25 16.4995V23.9995H15.25V16.4995H16.25ZM8.9437 30.2496L10.1104 26.7496H27.3896L28.5563 30.2496H8.9437Z" fill="black"/>
</svg>

<svg width="36" height="36" xmlns="http://www.w3.org/2000/svg"><path fill-rule="evenodd" clip-rule="evenodd" d="m19.25,7.5v-4.5h-1v4.5h1zM13.85,8.65l-3-3-.71.71,3,3,.71-.71zm13.5-2.29-3,3-.71-.71,3-3,.71.71zM13.25,17.25c0-3.04,2.46-5.5,5.5-5.5,3.04,0,5.5,2.46,5.5,5.5v8.5h-11v-8.5zm-1,8.5v-8.5c0-3.59,2.91-6.5,6.5-6.5,3.59,0,6.5,2.91,6.5,6.5v8.5h2.86l1.83,5.5H7.56l1.83-5.5H12.25zm4-9.25v7.5h-1v-7.5h1zM8.94,30.25l1.17-3.5h17.28l1.17,3.5H8.94z"/></svg>
